kora/panel/16/fcitx-hangul-panel.svg

<svg xmlns="http://www.w3.org/2000/svg" width="16" height="16" version="1.1">
 <defs>
  <style id="current-color-scheme" type="text/css">
   .ColorScheme-Text { color:#dfdfdf; } .ColorScheme-Highlight { color:#4285f4; }
  </style>
 </defs>
 <path style="fill:currentColor" class="ColorScheme-Text" d="M 2,0 C 0.892,0 0,0.892 0,2 V 14 C 0,15.108 0.892,16 2,16 H 14 C 15.108,16 16,15.108 16,14 V 2 C 16,0.892 15.108,0 14,0 Z M 5,2 H 7 V 3 H 5 Z M 11,3 H 12 V 6 H 14 V 7 H 12 V 11 H 11 Z M 3,4 H 9 V 5 H 3 Z M 6,6 C 7.5969,6 9,7.0577 9,8.5 9,9.9423 7.5969,11 6,11 4.4031,11 3,9.9423 3,8.5 3,7.0577 4.4031,6 6,6 Z M 6,7 C 4.8355,7 4,7.7332 4,8.5 4,9.2668 4.8355,10 6,10 7.1645,10 8,9.2668 8,8.5 8,7.7332 7.1645,7 6,7 Z M 5,12 H 6 V 13 H 13 V 14 H 5 Z"/>
</svg>

<svg xmlns="http://www.w3.org/2000/svg" width="16" height="16" viewBox="0 0 16 16">
 <defs>
  <style id="current-color-scheme" type="text/css">
   .ColorScheme-Text { color:#dfdfdf; } .ColorScheme-Highlight { color:#4285f4; } .ColorScheme-NeutralText { color:#ff9800; } .ColorScheme-PositiveText { color:#4caf50; } .ColorScheme-NegativeText { color:#f44336; }
  </style>
 </defs>
 <path style="fill:currentColor" class="ColorScheme-Text" d="m5 12h1v1h7v1h-8zm6-9h1v3h2v1h-2v4h-1zm-5 3c1.597 0 3 1.058 3 2.5s-1.403 2.5-3 2.5-3-1.058-3-2.5 1.403-2.5 3-2.5zm0 1c-1.165 0-2 .733-2 1.5s.835 1.5 2 1.5 2-.733 2-1.5-.835-1.5-2-1.5zm-3-3h6v1h-6zm2-2h2v1h-2z" fill="#dfdfdf"/>
</svg>
